icons/chrevron-right.svg

<?xml version="1.0" standalone="no"?><!-- Generator: Gravit.io --><svg xmlns="http://www.w3.org/2000/svg" xmlns:xlink="http://www.w3.org/1999/xlink" width="96" height="96"><path d=" M 31.050000000000004 5.200000000000003 L 70.25 44.300000000000004 L 71.75 48.00000000000001 L 70.25 51.70000000000001 L 31.049999999999997 90.8 C 30.35 91.60000000000001 29.35 92 28.25 92 C 27.15 92 26.15 91.60000000000001 25.450000000000003 90.8 C 24.65 90.10000000000001 24.25 89.10000000000001 24.25 88 C 24.25 86.9 24.65 85.9 25.450000000000003 85.2 L 62.55 48.00000000000001 L 25.45000000000001 10.799999999999997 C 24.650000000000006 10.099999999999994 24.250000000000007 9.099999999999994 24.250000000000007 8 C 24.250000000000007 6.900000000000006 24.650000000000006 5.900000000000006 25.45000000000001 5.200000000000003 C 26.150000000000006 4.400000000000006 27.150000000000006 4 28.250000000000007 4 C 29.35000000000001 4 30.35000000000001 4.400000000000006 31.050000000000004 5.200000000000003 Z " fill="#454545" stroke="none"/><mask id="_mask_62JBmsUWOv45gtuWSPINMeC1cMyqwC1A"><path d=" M 31.050000000000004 5.200000000000003 L 70.25 44.300000000000004 L 71.75 48.00000000000001 L 70.25 51.70000000000001 L 31.049999999999997 90.8 C 30.35 91.60000000000001 29.35 92 28.25 92 C 27.15 92 26.15 91.60000000000001 25.450000000000003 90.8 C 24.65 90.10000000000001 24.25 89.10000000000001 24.25 88 C 24.25 86.9 24.65 85.9 25.450000000000003 85.2 L 62.55 48.00000000000001 L 25.45000000000001 10.799999999999997 C 24.650000000000006 10.099999999999994 24.250000000000007 9.099999999999994 24.250000000000007 8 C 24.250000000000007 6.900000000000006 24.650000000000006 5.900000000000006 25.45000000000001 5.200000000000003 C 26.150000000000006 4.400000000000006 27.150000000000006 4 28.250000000000007 4 C 29.35000000000001 4 30.35000000000001 4.400000000000006 31.050000000000004 5.200000000000003 Z " fill="white" stroke="none"/></mask><path d=" M 31.050000000000004 5.200000000000003 L 70.25 44.300000000000004 L 71.75 48.00000000000001 L 70.25 51.70000000000001 L 31.049999999999997 90.8 C 30.35 91.60000000000001 29.35 92 28.25 92 C 27.15 92 26.15 91.60000000000001 25.450000000000003 90.8 C 24.65 90.10000000000001 24.25 89.10000000000001 24.25 88 C 24.25 86.9 24.65 85.9 25.450000000000003 85.2 L 62.55 48.00000000000001 L 25.45000000000001 10.799999999999997 C 24.650000000000006 10.099999999999994 24.250000000000007 9.099999999999994 24.250000000000007 8 C 24.250000000000007 6.900000000000006 24.650000000000006 5.900000000000006 25.45000000000001 5.200000000000003 C 26.150000000000006 4.400000000000006 27.150000000000006 4 28.250000000000007 4 C 29.35000000000001 4 30.35000000000001 4.400000000000006 31.050000000000004 5.200000000000003 Z " fill="none" stroke="none" stroke-width="16" mask="url(#_mask_62JBmsUWOv45gtuWSPINMeC1cMyqwC1A)"/></svg>

<svg xmlns="http://www.w3.org/2000/svg" width="96" height="96"><path d="M31.05 5.2l39.2 39.1 1.5 3.7-1.5 3.7-39.2 39.1c-.7.8-1.7 1.2-2.8 1.2-1.1 0-2.1-.4-2.8-1.2-.8-.7-1.2-1.7-1.2-2.8 0-1.1.4-2.1 1.2-2.8L62.55 48l-37.1-37.2c-.8-.7-1.2-1.7-1.2-2.8 0-1.1.4-2.1 1.2-2.8.7-.8 1.7-1.2 2.8-1.2 1.1 0 2.1.4 2.8 1.2z" fill="#454545"/></svg>
